X:1
T:Se lamentar augelli
T:Se lamentar augelli
T:Girolamo Scotto
T:Source : Madrigali a tre voci---Venetia---G.Scotto---1541. Editor : André Vierendeels (14/06/16).
T:Notes : Original clefs : C1, C3, F3 Editorial accidentals above tha staff Original note values have been halved Text by Francesco Petrarca m 45 in T  first "G" notated as "A" in original print "Primi toni" 
T:©
T:©
T:©
T:©
T:©
C:Girolamo Scotto
Z:©
%%score [ 1 2 3 ]
L:1/8
Q:1/4=85
M:2/2
K:F
V:1 treble nm="Soprano" snm="S"
V:2 treble nm="Alto" snm="A"
V:3 treble-8 nm="Tenor" snm="T"
V:1
 B4 B2 B2 | c2 c2 d3 c | B4 A2 F2 | F2 F2 G4 | A8 | z2 c2 d2 d2 | c2 A2 B4 | A3 B c2 d2- | %8
w: Se la- men-|tar au- gel- *|* li, o'|ver- di fron-|de,|mo- ver so-|a- va- men-|te _ _ à|
 dc B4 A2- | AG G4 F2 | G4 D4 | z2 F2 F2 F2 | B3 A G2 G2 | A2 c3 B B2- | B2 A2 B3 A/G/ | %15
w: _ _ l'au- ra|_ es- ti- *|* va,|o' roc- co|mor- mo- rar di|lu- cid' _ on-|* * de _ _|
 F2 D2 E2 E2 | F2 F2 G2 A2 | B2 G2 F2 F2 | z4 A4 | A2 A2 B2 B2 | A6 A2 | A2 B3 A A2- | A2 G2 A3 B | %23
w: _ s'o- de d'u-|na fio- ri- ta'e|ver- de ri- ta,|la'v'|io seg- gia d'a-|mor pen-|so- so, è scri-||
 c4 B2 A2 | G2 E2 F2 B2 | A2 G3 F F2- | F2 E2 F4 | z8 | F4 F2 F2 | F2 G2 A4 | A6 A2- | A2 F4 A2- | %32
w: |* va, pen- so-|so'e _ _ scri-|* * va,||lei chel ciel|ne mo- stro,|ter- ra|_ n'as- con-|
 AG G4 F2 | G4 D4 | D2 G2 F2 B2- | BA A4 G2 | A4 z2 c2- | c2 B4 A2 | B2 B2 c2 c2 | dcBA G2 c2 | %40
w: |de, veg-|gio, et o- do'et|_ in- ten- *|do ch'an-|* chor vi-|va, di si lon-|ta _ _ _ _ no'a|
 B2 A2 B2 d2- | d2 c2 dcBA | G2 A3 G G2- |"^#" G2 F2 G4- | G2 c2 B2 A2 | B2 d2 d2 c2 | %46
w: so- spir miei ri-|* * spon- * * *||* * de,|_ di si lon-|ta- no'a so- spir|
 dcBA G2 A2- | AG G4 F2 | G8 |] %49
w: miei _ _ _ _ ri-|* * spon- *|de|
V:2
 D4 D2 D2 | E2 F2 D4- | D2 E2 F2 D2 | D2 D2 B,2 E2 | D2 F2 F2 F2 | E2 A4 G2 | AGFE D2 F2 | %7
w: Se la- men-|tar au- gel-|* * li, o'|ver- di fron- *|de, mo- ver so-|a- ,- va-|men- * * * * te'à|
 F2 F2 _E2 D2 |"^b" B,2 E2 D3 C | =B,2 C2 A,4 | G,2 B,2 B,2 B,2 | C2 C2 D3 E | F2 D2 E4 | F3 E D4 | %14
w: l'au- ra es- ti-|||va, o' roc- co|mor- mo- rar _|_ di lu-|cid' _ on-|
 C4 B,2 D2 | D2 D2 G,2 C2 | B,2 A,2 C4 | D2 _E3 D D2- | D2 C2 D2 F2 | F2 F2 G2 G2 | F6 E2 | %21
w: * de, s'o-|de d'u- na fio-|ri- ta'e ver-|de vi- * *|* * ta, la'v'|io seg- gia d'a-|mor pen-|
 ^F2 G2 =F4- | F2 ED E2 F2- | F2 E3 D D2- | D2 C2 D4- | D2 G,2 A,2 B,2 | G,4 F,2 C2- | %27
w: so- so'è scri-|||* * va,|_ pen- so- so'è|scri- * *|
 CB, B,4 A,2 | B,2 D2 D2 C2 | D4 E4 | F6 E2 | F2 D2 C4 | C3 B, A,4 | G,2 B,2 B,2 A,2 | B,3 C D4 | %35
w: |va, lei chel ciel|ne mo-|stro, ter-|ra n'as- con-||de, veg- gio, et|o- * *|
 D2 D2 B,4 | A,4 G,4 | A,2 D2 C4 | D2 B,4 A,2 | B,2 D2 E2 E2 | F2 F2 G2 z G | F3 E D3 C | %42
w: * do et|in ten-|do ch'an- chor|vi- * *|va, di si lon-|tan à miei so-|spir _ _ _|
 B,2 C2 D2 B,2 | A,4 G,2 D2 | E2 E2 F2 F2 | G2 z G F3 E | D3 C B,2 C2 | D2 B,2 A,4 | G,8 |] %49
w: ri- spon- * *|* de, di|si lon- tan à|miei so- spir _|_ _ _ ri-|spon- * *|de.|
V:3
 B4 B2 B2 | A2 A2 B2 G2 | G2 G2 D2 B2 | B2 B2 G4 | D2 d2 d2 d2 | c2 A2 B4 | A4 z2 d2 | %7
w: Se la- men-|tar au- gel- li'o'|ver- di fron- de'o'|ver- di fron-|de, mo- ver so-|a- va- men-|te à|
 d2 d2 c2 B2 | G6 F2 | G2 C2 D4 | G2 G2 G2 G2 | E2 F2 D2 B2 | B2 B2 c4 | F4 G2 D2 | F4 z2 B,2 | %15
w: l'au- ra'es- ti- v'a|l'au- ra'es-|ti- * *|va, o' roc- co|mor- mo- rar di|lu- cid' on-||de, s'o-|
 B,2 B,2 C2 C2 | D4 E2 F2 | B,2 C2 D4 | _E4 D4- | D4 z2 G2 | D2 d2 d2 c2 | d2 G2 d3 c | B4 A2 D2 | %23
w: de d'u- na fio-|ri- ta'e ver-|de vi- *|* ta-|* la'v'|io seg- gia d'a-|mor pen- so- so'è|scr- va, la'v|
 A4 G2 F2 | E4 D2 G2 | F2 _E2 D2 B,2 | C4 F3 E | D4 C4 | B,2 B4 A2 | B4 A3 G | F2 D2 D2 C2 | %31
w: io seg- *|gia d'a- mor|pen- so- * so'è|scri- * *||va, lei chel|ciel _ _|_ lei chel ciel|
 D3 E F2 F2 | C2 C2 D4 | G2 G2 G2 F2 | G3 A B2 G2 | F2 D2 G4 | D2 F4 E2 | F2 B,2 F4 | D2 _E2 C4 | %39
w: ne mo- d- stro,|ter- ra n'as-|con- de, veg- gio|et _ o- do'et|in- ten- *|do, ch'an- chor|vi- * *||
 B,2 B2 c2 c2 | d2 d2 G2 z G | B2 A2 B2 G2- | G2 F2 D2 G2 |"^#" D4 G2 B2 | c2 c2 d2 d2 | %45
w: va, di si lon-|tan à miei so-|spir ri- spon- *||* de, di|si lon tan à|
 G2 z G B2 A2 | B2 G4 F2 | D2 G2 D4 | G8 |] %49
w: miei so- spir ri-|spon- * *||de.|

